X:174
T:Grace Morrison of Borve
C:Joe Buchanan's Scottish Tome - Page 267.2
I:267 2
Z:Carl Allison
C:Bill Black
R:Jig
L:1/8
M:6/8
K:D
A | "D"d2 g "A7"fge | "D"fed "A7"cBA | "G"B2 d "D"cde | "Em"GEE "A7"E2 A |
"D"d2 g "A7"fge | "D"fed "D7"cBA | "G"B2 d "A7"cde | "D"fdd d2 :|
f/g/ | "D"a2 g "D7"fed | "G"Bge "A7"cBA | "G"B2 d "D"A2 d | "E7"cd^d "A7"efg |
"D"a2 g "D7"ged | "G"Bge "A7"cBA | "G"B2 d "A7"cde | "D"fdd d2 :|

